X:75
T:Echo, The
R:hornpipe
D:Kevin Crawford: D Flute Album
Z:id:hn-hornpipe-75
M:C|
K:D
(3gfe|dAFA dAFA|d2ef dcBc|A2ce (3ABA ce|faef dcBA|
dAFA dAFA|d2ef dcBA|~g3b afdf|eABc d2:|
|:z2|dg~g2 bg~g2|dgbg agfg|A2ce (3ABA ce|faef dcBA|
dg~g2 bg~g2|dgbg agfa|gfgb afdf|eABc d2:|

